frontend/public/svg/arrows/arrow-right.svg

<svg width="151" height="84" viewBox="0 0 151 84" fill="none" xmlns="http://www.w3.org/2000/svg">
<path d="M68.1002 41.3499C50.104 41.2042 32.1079 41.0874 14.1118 40.8905C10.5249 40.8505 6.93279 40.5689 3.36035 40.2178C2.76932 40.1535 2.21142 39.9124 1.75964 39.526C1.30786 39.1395 0.983227 38.6258 0.828173 38.0518C0.53479 37.133 1.55475 35.8295 2.77291 35.6378C3.95432 35.4521 5.12976 35.1639 6.31707 35.0924C13.8997 34.6329 21.4818 33.9826 29.0717 33.8454C44.665 33.5652 60.2628 33.4943 75.8594 33.4765C90.6565 33.4595 105.454 33.6446 120.251 33.6787C122.627 33.6846 125.005 33.3853 127.377 33.1733C127.534 33.1345 127.679 33.0567 127.799 32.9472C127.918 32.8377 128.008 32.6999 128.061 32.5465C128.103 32.1803 127.995 31.562 127.751 31.4307C123.204 28.9589 118.713 26.3585 114.037 24.1526C103.16 19.0207 92.9557 12.7277 82.7588 6.41374C81.0832 5.37607 79.3268 4.32201 78.6508 2.26308C78.528 1.88831 78.3364 1.24642 78.4926 1.12106C79.052 0.599398 79.7318 0.224347 80.4715 0.0295109C81.2592 -0.0634608 82.0572 0.0642497 82.7765 0.39838C85.3244 1.55222 87.854 2.75664 90.333 4.05094C108.051 13.3014 125.763 22.5621 143.469 31.8331C150.157 35.3116 153.336 38.6846 145.307 46.3329C142.994 48.5375 140.654 50.7389 138.139 52.6993C126.475 61.8006 114.768 70.8462 103.018 79.8362C101.403 80.9957 99.699 82.0271 97.9228 82.9211C96.7644 83.5499 95.6046 83.177 94.6044 82.4229C93.5037 81.5926 92.8204 79.1793 93.1998 78.118C94.0432 75.7617 95.7235 74.033 97.5278 72.4676C104.475 66.4411 111.46 60.4579 118.481 54.518C123.044 50.6365 127.655 46.812 132.211 42.9225C132.436 42.7309 132.447 42.1349 132.356 41.7766C132.296 41.6215 132.199 41.4833 132.074 41.3737C131.949 41.2642 131.799 41.1867 131.638 41.1478C129.256 40.9916 126.871 40.7927 124.488 40.8052C105.691 40.9045 86.8948 41.0283 68.0982 41.1767L68.1002 41.3499Z" fill="black"/>
</svg>

<svg xmlns="http://www.w3.org/2000/svg" width="151" height="84" fill="none" viewBox="0 0 151 84"><path fill="#000" d="M68.1 41.35c-17.996-.146-35.992-.263-53.988-.46-3.587-.04-7.18-.321-10.752-.672a2.95 2.95 0 0 1-2.532-2.166c-.293-.919.727-2.222 1.945-2.414 1.181-.186 2.357-.474 3.544-.546 7.583-.46 15.165-1.11 22.755-1.247 15.593-.28 31.19-.35 46.787-.368 14.798-.017 29.595.168 44.392.202 2.376.006 4.754-.294 7.126-.506a.97.97 0 0 0 .684-.626c.042-.367-.066-.985-.31-1.116-4.547-2.472-9.038-5.073-13.714-7.278-10.877-5.132-21.081-11.425-31.278-17.74-1.676-1.037-3.432-2.091-4.108-4.15-.123-.375-.315-1.017-.158-1.142A4.6 4.6 0 0 1 80.472.03a4.3 4.3 0 0 1 2.305.368 150 150 0 0 1 7.556 3.653q26.577 13.875 53.136 27.782c6.688 3.479 9.867 6.852 1.838 14.5-2.313 2.205-4.653 4.406-7.168 6.366a4668 4668 0 0 1-35.121 27.137 38 38 0 0 1-5.095 3.085c-1.159.629-2.318.256-3.319-.498-1.1-.83-1.784-3.244-1.404-4.305.843-2.356 2.523-4.085 4.328-5.65a2230 2230 0 0 1 20.953-17.95c4.563-3.882 9.174-7.706 13.73-11.596.225-.191.236-.787.145-1.145a1.03 1.03 0 0 0-.718-.63c-2.382-.155-4.767-.354-7.15-.342q-28.195.15-56.39.372z"/></svg>
